resources/haticons/SVG/imdb.svg

<!-- Generated by IcoMoon.io -->
<svg version="1.1" xmlns="http://www.w3.org/2000/svg" width="24" height="24" viewBox="0 0 24 24">
<title>imdb</title>
<path fill="#e6b91e" d="M14.31 9.588v0.005c-0.077-0.048-0.227-0.070-0.42-0.070v4.815c0.27 0 0.44-0.060 0.5-0.165 0.062-0.104 0.095-0.405 0.095-0.885v-2.866c0-0.33-0.004-0.54-0.033-0.63-0.022-0.096-0.067-0.163-0.142-0.204zM22.416 0h-20.796c-0.878 0.060-1.56 0.744-1.62 1.596v20.784c0.060 0.874 0.712 1.542 1.555 1.617 0.015 0.003 0.030 0.003 0.045 0.003h20.845c0.88-0.088 1.55-0.826 1.555-1.71v-20.58c0-0.89-0.695-1.64-1.584-1.71zM4.792 15.626h-1.905v-7.366h1.905zM11.332 15.624h-1.662v-4.97l-0.67 4.969h-1.188l-0.698-4.86-0.007 4.86h-1.667v-7.363h2.468c0.083 0.523 0.16 1.048 0.23 1.574l0.27 1.87 0.442-3.444h2.483zM16.309 13.444c0 0.655-0.044 1.094-0.104 1.32-0.062 0.22-0.17 0.4-0.326 0.52-0.15 0.13-0.34 0.218-0.57 0.266-0.223 0.045-0.57 0.075-1.020 0.075l-0.004-0.002h-2.305v-7.363h1.426c0.914 0 1.45 0.047 1.77 0.128 0.325 0.090 0.575 0.225 0.745 0.42 0.165 0.18 0.273 0.404 0.313 0.645 0.050 0.235 0.076 0.705 0.076 1.402zM21.253 13.919c0 0.45-0.045 0.764-0.090 0.99-0.060 0.224-0.195 0.404-0.405 0.568-0.226 0.166-0.48 0.24-0.78 0.24-0.22 0-0.5-0.060-0.68-0.136-0.19-0.094-0.358-0.237-0.515-0.427l-0.116 0.47h-1.717v-7.364l-0.020-0.003h1.8v2.4c0.15-0.175 0.315-0.31 0.51-0.4 0.196-0.083 0.466-0.127 0.69-0.127 0.226-0.003 0.45 0.036 0.66 0.115 0.17 0.070 0.32 0.185 0.436 0.33 0.090 0.125 0.15 0.27 0.18 0.42 0.030 0.138 0.044 0.43 0.044 0.87zM19.080 11.205c-0.12 0-0.194 0.040-0.225 0.12-0.030 0.080-0.060 0.29-0.060 0.624v1.946c0 0.324 0.030 0.533 0.060 0.623 0.040 0.086 0.13 0.14 0.226 0.134 0.12 0 0.272-0.047 0.3-0.14 0.030-0.097 0.046-0.32 0.046-0.674l0.030-0.002v-1.89c0-0.303-0.015-0.508-0.060-0.603-0.044-0.1-0.195-0.14-0.317-0.138z"></path>
</svg>

<svg xmlns="http://www.w3.org/2000/svg" width="24" height="24"><path fill="#e6b91e" d="M14.31 9.588v.005c-.077-.048-.227-.07-.42-.07v4.815c.27 0 .44-.06.5-.165.062-.104.095-.405.095-.885v-2.866c0-.33-.004-.54-.033-.63a.288.288 0 0 0-.142-.204zM22.416 0H1.62C.742.06.06.744 0 1.596V22.38c.06.874.712 1.542 1.555 1.617.015.003.03.003.045.003h20.845A1.727 1.727 0 0 0 24 22.29V1.71C24 .82 23.305.07 22.416 0zM4.792 15.626H2.887V8.26h1.905zm6.54-.002H9.67v-4.97L9 15.623H7.812l-.698-4.86-.007 4.86H5.44V8.26h2.468c.083.523.16 1.048.23 1.574l.27 1.87.442-3.444h2.483zm4.977-2.18c0 .655-.044 1.094-.104 1.32-.062.22-.17.4-.326.52-.15.13-.34.218-.57.266-.223.045-.57.075-1.02.075l-.004-.002H11.98V8.26h1.426c.914 0 1.45.047 1.77.128.325.09.575.225.745.42.165.18.273.404.313.645.05.235.076.705.076 1.402zm4.944.475c0 .45-.045.764-.09.99-.06.224-.195.404-.405.568-.226.166-.48.24-.78.24-.22 0-.5-.06-.68-.136a1.586 1.586 0 0 1-.515-.427l-.116.47H16.95V8.26l-.02-.003h1.8v2.4c.15-.175.315-.31.51-.4.196-.083.466-.127.69-.127.226-.003.45.036.66.115.17.07.32.185.436.33.09.125.15.27.18.42.03.138.044.43.044.87zm-2.173-2.714c-.12 0-.194.04-.225.12-.03.08-.06.29-.06.624v1.946c0 .324.03.533.06.623.04.086.13.14.226.134.12 0 .272-.047.3-.14.03-.097.046-.32.046-.674l.03-.002v-1.89c0-.303-.015-.508-.06-.603-.044-.1-.195-.14-.317-.138z"/></svg>
